src/images/mediaLogos/darkTheme/Holzmagazin.svg

<svg width="90" height="16" viewBox="0 0 90 16" fill="none" xmlns="http://www.w3.org/2000/svg">
<path d="M89.9992 11.5926V10.3137C89.6198 10.2194 89.162 10.1399 88.7047 10.1082V6.08405C88.7047 4.71045 88.1365 3.58979 86.369 3.58979C85.0894 3.58979 84.1747 4.23705 83.7009 5.15252H83.6849C83.7643 4.7265 83.7953 4.09491 83.7953 3.73193C82.7381 3.70061 81.523 3.74799 80.5128 3.87407V5.13686C80.9705 5.16858 81.5074 5.23162 81.8856 5.29466V10.1085C81.4126 10.1403 80.9228 10.2197 80.5128 10.3141V11.593H85.0585V10.2981C84.7111 10.2033 84.2847 10.1399 83.9057 10.1082V7.8038C83.9057 6.43098 84.7115 5.27822 85.737 5.27822C86.4791 5.27822 86.6999 5.76806 86.6999 6.57233V11.5922H89.9992V11.5926ZM80.1169 11.5926V10.3137C79.7375 10.2194 79.2806 10.1399 78.8385 10.1082V3.73154C77.6708 3.70022 76.455 3.74759 75.4444 3.87368V5.13647C75.9025 5.16819 76.439 5.23123 76.8184 5.29427V10.1082C76.3446 10.1399 75.8548 10.2194 75.4444 10.3137V11.5926H80.1169ZM79.0906 1.36415C79.0906 0.669513 78.5229 0.133071 77.8279 0.133071C77.1493 0.133071 76.5811 0.685568 76.5811 1.36415C76.5811 2.04273 77.1489 2.57956 77.8279 2.57956C78.5229 2.57956 79.0906 2.02706 79.0906 1.36415ZM74.9001 11.5926V8.98789H73.5904C73.5113 9.3356 73.4643 9.66686 73.4326 9.98168H72.6279C72.1698 9.98168 71.5546 9.98168 71.223 9.99851L74.805 5.23123V3.74759H68.9495V6.22619H70.2758C70.3388 5.87848 70.3862 5.5946 70.4332 5.26294H71.1439C71.6329 5.26294 72.2481 5.24689 72.548 5.23123L68.9018 10.1082V11.5926H74.9001V11.5926ZM65.0989 8.32458C65.0989 9.28743 64.4199 10.2194 63.4265 10.2194C62.8419 10.2194 62.4946 9.83993 62.4946 9.31915C62.4946 8.51371 63.284 8.13545 65.0989 8.13545V8.32458V8.32458ZM68.4131 11.4821V10.2033C68.0027 10.1716 67.498 10.1082 67.1186 10.0455V6.3045C67.1186 4.58437 66.4087 3.57374 63.8518 3.57374C62.8733 3.57374 61.9413 3.73154 61.1206 3.96844V6.27318H62.3991C62.4629 5.92547 62.5255 5.56288 62.5573 5.24689C62.8881 5.15213 63.2832 5.10514 63.6623 5.10514C64.7665 5.10514 65.0981 5.53117 65.0981 6.36794V6.84134C62.4308 6.857 60.5681 7.74115 60.5681 9.61909C60.5681 10.8819 61.3888 11.7496 62.8094 11.7496C63.9783 11.7496 64.9399 11.1344 65.3194 10.2503L65.3354 10.2663C65.2716 10.6763 65.2567 11.1505 65.2567 11.6074C66.2826 11.6392 67.4984 11.5926 68.4131 11.4821ZM58.3354 12.6976C58.3354 13.4384 57.6416 14.0069 56.331 14.0069C55.3208 14.0069 54.6579 13.5649 54.6579 12.8393C54.6579 12.3972 54.9265 11.9708 55.3838 11.6396H55.7472L57.1051 11.6873C57.9728 11.7187 58.3354 12.129 58.3354 12.6976ZM57.6725 6.43098C57.6725 7.26736 57.1357 7.77208 56.2523 7.77208C55.3055 7.77208 54.8 7.2513 54.8 6.41493C54.8 5.62553 55.3364 5.04171 56.2523 5.04171C57.1835 5.04171 57.6725 5.5946 57.6725 6.43098ZM60.3395 12.4289C60.3395 10.9136 59.3617 10.1876 57.6721 10.1238L56.4571 10.0772C55.5412 10.0455 55.2417 9.95074 55.2417 9.58737C55.2417 9.39825 55.3678 9.19307 55.6199 9.08265C55.8408 9.13003 56.0154 9.1453 56.2363 9.1453C58.4776 9.1453 59.5974 7.99332 59.5974 6.32056C59.5974 5.9102 59.4561 5.56249 59.2031 5.32559H60.2764V3.74759H57.6091C57.1831 3.63717 56.8354 3.57413 56.3306 3.57413C54.0415 3.57413 52.8739 4.96301 52.8739 6.54179C52.8739 7.5673 53.316 8.29326 54.0415 8.68795C53.5051 8.92485 53.1108 9.47773 53.1108 10.0929C53.1108 10.6297 53.4103 11.0718 53.8837 11.2926C53.2373 11.6392 52.6687 12.3968 52.6687 13.2179C52.6687 14.7486 53.9472 15.554 56.0299 15.554C58.6354 15.554 60.3395 14.1174 60.3395 12.4289ZM49.1368 8.32458C49.1368 9.28743 48.4579 10.2194 47.4633 10.2194C46.8798 10.2194 46.5325 9.83993 46.5325 9.31915C46.5325 8.51371 47.3219 8.13545 49.1368 8.13545V8.32458ZM52.4514 11.4821V10.2033C52.041 10.1716 51.5363 10.1082 51.1569 10.0455V6.3045C51.1569 4.58437 50.447 3.57374 47.8901 3.57374C46.9112 3.57374 45.9796 3.73154 45.1589 3.96844V6.27318H46.4374C46.5004 5.92547 46.5639 5.56288 46.5956 5.24689C46.9272 5.15213 47.3215 5.10514 47.6998 5.10514C48.8048 5.10514 49.1364 5.53117 49.1364 6.36794V6.84134C46.4691 6.857 44.6064 7.74115 44.6064 9.61909C44.6064 10.8819 45.4279 11.7496 46.8477 11.7496C48.0154 11.7496 48.9782 11.1344 49.3577 10.2503L49.3737 10.2663C49.3099 10.6763 49.2942 11.1505 49.2942 11.6074C50.3205 11.6392 51.5363 11.5926 52.4514 11.4821ZM44.108 11.5926V10.3137C43.7289 10.2194 43.2876 10.1399 42.8295 10.1082V6.19448C42.8295 4.42617 41.9931 3.58979 40.4778 3.58979C39.1516 3.58979 38.2835 4.39485 37.9209 5.15252C37.7314 4.39485 37.1471 3.58979 35.7587 3.58979C34.591 3.58979 33.6434 4.20494 33.17 5.16819L33.1544 5.15213C33.217 4.71006 33.2487 4.09452 33.2487 3.73154C32.2076 3.70022 30.9757 3.74759 29.9663 3.87368V5.13647C30.4232 5.16819 30.9601 5.23123 31.3391 5.29427V10.1082C30.8653 10.1399 30.3762 10.2194 29.9663 10.3137V11.5926H34.5111V10.2981C34.1642 10.2033 33.7382 10.1399 33.3592 10.1082V7.83591C33.3592 6.36794 34.2277 5.27822 35.1584 5.27822C35.9321 5.27822 36.0903 5.84677 36.0903 6.6201V11.5922H39.2311V10.2981C38.8841 10.2033 38.473 10.1399 38.0791 10.1082V7.83591C38.0791 6.3045 38.9942 5.27822 39.8783 5.27822C40.6203 5.27822 40.8094 5.79939 40.8094 6.63577V11.5922H44.108V11.5926ZM29.4212 11.5926V8.98789H28.111C28.0323 9.3356 27.9846 9.66686 27.9528 9.98168H27.1482C26.6904 9.98168 26.0749 9.98168 25.7433 9.99851L29.3268 5.23123V3.74759H23.4706V6.22619H24.7968C24.8595 5.87848 24.9073 5.5946 24.9543 5.26294H25.6649C26.154 5.26294 26.7699 5.24689 27.0695 5.23123L23.4232 10.1082V11.5926H29.4212ZM22.8555 11.5926V10.3137C22.4768 10.2194 22.0348 10.1399 21.577 10.1082V0.0543667C20.409 0.02265 19.1936 0.070029 18.1833 0.196112V1.45891C18.6411 1.49062 19.1779 1.55366 19.5565 1.61671V10.1082C19.0831 10.1399 18.5941 10.2194 18.1833 10.3137V11.5926H22.8555ZM16.1472 7.63073C16.1472 9.22479 15.3899 10.0294 14.3954 10.0294C13.2273 10.0294 12.6435 9.20873 12.6435 7.59901C12.6435 5.9889 13.5273 5.29427 14.4271 5.29427C15.6112 5.29427 16.1472 6.11577 16.1472 7.63073ZM18.2311 7.51992C18.2311 4.82048 16.7949 3.5894 14.5692 3.5894C12.1858 3.5894 10.5604 5.35731 10.5604 7.80341C10.5604 10.5976 11.9966 11.7492 14.2219 11.7492C16.5736 11.7496 18.2311 9.98168 18.2311 7.51992ZM10.3376 11.5926V10.3137C9.95855 10.2194 9.46948 10.1399 9.04307 10.1082V6.08405C9.04307 4.71045 8.47491 3.58979 6.70739 3.58979C5.49198 3.58979 4.59256 4.17361 4.13482 5.04171H4.10271C4.21353 4.56831 4.24524 3.92106 4.24524 3.44766V0.0539753C3.07721 0.0222587 1.8618 0.0696377 0.851562 0.195721V1.45851C1.3093 1.49023 1.84613 1.55327 2.22478 1.61631V10.1078C1.75098 10.1395 1.26192 10.219 0.851562 10.3133V11.5922H5.39722V10.2981C5.03424 10.2033 4.62389 10.1399 4.24524 10.1082V7.81985C4.24524 6.43098 5.0503 5.27822 6.06014 5.27822C6.81782 5.27822 7.03905 5.76806 7.03905 6.57233V11.5922H10.3376V11.5926Z" fill="#ECECEC"/>
</svg>

<svg width="90" height="16" fill="none" xmlns="http://www.w3.org/2000/svg"><path d="M90 11.593v-1.28a7.737 7.737 0 0 0-1.295-.205V6.084c0-1.374-.569-2.494-2.336-2.494-1.28 0-2.194.647-2.668 1.563h-.016c.08-.426.11-1.058.11-1.421a22.618 22.618 0 0 0-3.282.142v1.263c.457.032.994.095 1.373.158v4.813a9.022 9.022 0 0 0-1.373.206v1.279h4.545v-1.295a6.763 6.763 0 0 0-1.152-.19V7.804c0-1.373.805-2.526 1.831-2.526.742 0 .963.49.963 1.294v5.02H90zm-9.883 0v-1.28a7.794 7.794 0 0 0-1.279-.205V3.732a23.483 23.483 0 0 0-3.394.142v1.262c.459.032.995.095 1.374.158v4.814a9.03 9.03 0 0 0-1.374.206v1.279h4.673zM79.09 1.364c0-.694-.568-1.23-1.263-1.23-.679 0-1.247.552-1.247 1.23 0 .679.568 1.216 1.247 1.216.695 0 1.263-.553 1.263-1.216zM74.9 11.593V8.988h-1.31c-.08.348-.127.679-.158.994h-.805c-.458 0-1.073 0-1.405.017l3.582-4.768V3.748h-5.856v2.478h1.327c.063-.348.11-.631.157-.963h.71c.49 0 1.105-.016 1.405-.032l-3.646 4.877v1.485H74.9zm-9.802-3.268c0 .962-.68 1.894-1.673 1.894-.584 0-.931-.38-.931-.9 0-.805.789-1.184 2.604-1.184v.19zm3.314 3.157v-1.279c-.41-.031-.915-.095-1.294-.157V6.305c0-1.72-.71-2.731-3.267-2.731-.979 0-1.91.158-2.731.394v2.305h1.278c.064-.348.127-.71.158-1.026a4.14 4.14 0 0 1 1.105-.142c1.104 0 1.436.426 1.436 1.263v.473c-2.667.016-4.53.9-4.53 2.778 0 1.263.82 2.13 2.241 2.13 1.17 0 2.13-.615 2.51-1.499l.016.016c-.063.41-.078.884-.078 1.341a22.702 22.702 0 0 0 3.156-.125zm-10.078 1.216c0 .74-.693 1.309-2.004 1.309-1.01 0-1.673-.442-1.673-1.168 0-.442.268-.868.726-1.2h.363l1.358.048c.868.032 1.23.442 1.23 1.01zm-.663-6.267c0 .836-.536 1.341-1.42 1.341-.947 0-1.452-.52-1.452-1.357 0-.79.536-1.373 1.452-1.373.931 0 1.42.553 1.42 1.389zm2.668 5.998c0-1.515-.978-2.241-2.668-2.305l-1.215-.047c-.916-.031-1.215-.126-1.215-.49 0-.189.126-.394.378-.504.22.047.395.062.616.062 2.242 0 3.361-1.152 3.361-2.824 0-.41-.14-.759-.394-.995h1.073V3.748H57.61a4.64 4.64 0 0 0-1.278-.174c-2.29 0-3.457 1.389-3.457 2.968 0 1.025.442 1.751 1.167 2.146-.536.237-.93.79-.93 1.405 0 .537.3.979.773 1.2-.647.346-1.215 1.104-1.215 1.925 0 1.53 1.278 2.336 3.36 2.336 2.606 0 4.31-1.437 4.31-3.125zM49.136 8.325c0 .962-.68 1.894-1.674 1.894-.583 0-.93-.38-.93-.9 0-.805.789-1.184 2.604-1.184v.19zm3.314 3.157v-1.279c-.41-.031-.915-.095-1.294-.157V6.305c0-1.72-.71-2.731-3.267-2.731a9.91 9.91 0 0 0-2.731.394v2.305h1.278c.063-.348.127-.71.159-1.026a4.15 4.15 0 0 1 1.104-.142c1.105 0 1.436.426 1.436 1.263v.473c-2.667.016-4.53.9-4.53 2.778 0 1.263.822 2.13 2.242 2.13 1.167 0 2.13-.615 2.51-1.499l.016.016a9.06 9.06 0 0 0-.08 1.341 22.714 22.714 0 0 0 3.157-.125zm-8.343.11v-1.278a7.52 7.52 0 0 0-1.278-.206V6.194c0-1.768-.837-2.604-2.352-2.604a2.795 2.795 0 0 0-2.557 1.563c-.19-.758-.774-1.563-2.162-1.563-1.168 0-2.116.615-2.589 1.578l-.016-.016c.063-.442.095-1.057.095-1.42a22.71 22.71 0 0 0-3.283.142v1.262c.457.032.994.095 1.373.158v4.814a9.005 9.005 0 0 0-1.373.206v1.279h4.545v-1.295a6.744 6.744 0 0 0-1.152-.19V7.836c0-1.468.869-2.558 1.8-2.558.773 0 .931.569.931 1.342v4.972h3.141v-1.294a6.511 6.511 0 0 0-1.152-.19V7.836c0-1.532.915-2.558 1.8-2.558.741 0 .93.521.93 1.358v4.956h3.299zm-14.687 0V8.989h-1.31a8.204 8.204 0 0 0-.158.994h-.805c-.458 0-1.073 0-1.405.017l3.584-4.768V3.748H23.47v2.478h1.326c.063-.348.11-.631.157-.963h.71c.49 0 1.106-.016 1.405-.032l-3.646 4.877v1.485h5.998zm-6.566 0v-1.278a7.519 7.519 0 0 0-1.278-.206V.054a23.42 23.42 0 0 0-3.394.142V1.46c.458.032.995.095 1.373.158v8.491a9.035 9.035 0 0 0-1.373.206v1.279h4.672zm-6.708-3.961c0 1.594-.757 2.398-1.752 2.398-1.168 0-1.752-.82-1.752-2.43 0-1.61.884-2.305 1.784-2.305 1.184 0 1.72.822 1.72 2.337zm2.084-.111c0-2.7-1.436-3.93-3.662-3.93-2.383 0-4.009 1.767-4.009 4.213 0 2.795 1.437 3.946 3.662 3.946 2.352 0 4.01-1.767 4.01-4.23zm-7.893 4.073v-1.28a8.279 8.279 0 0 0-1.295-.205V6.084c0-1.374-.568-2.494-2.336-2.494-1.215 0-2.114.584-2.572 1.452h-.032c.11-.474.142-1.12.142-1.594V.054A23.419 23.419 0 0 0 .852.196v1.263c.457.031.994.094 1.373.157v8.492a9.02 9.02 0 0 0-1.373.205v1.28h4.545v-1.295a7.023 7.023 0 0 0-1.152-.19V7.82c0-1.389.805-2.542 1.815-2.542.758 0 .979.49.979 1.294v5.02h3.299z" fill="#ECECEC"/></svg>
